X:85
%%etbk:tnset id:30,pos:1,rep:3x,ant:
%%etbk:wsite http://www.thesession.org/tunes/display/240
%%etbk:pldat 2013-10-21T18:10,2013-08-28T17:45
T: Silver Spire, The
Z: Piano Box Version by Martin Fleischmann
H: Created 2013-02-19 /  Last Modified 2013-02-19
M: 4/4
L: 1/8
R: reel
K: Dmaj
|: "D"!1!D2 !3!(3FED !3!F!5!A-A!1!A | !3!dcde !5!f!3!d!1!A!2!F | "G"!1!G2!3!BG "D"!3!F!5!A!1!D!3!F | "A"!4!GFE!1!D !2!C!4!E!1!A,!2!C |
"D"!1!D2 !3!(3FED !3!F!5!A-A!1!A | !3!dcde !5!f!3!d!1!A!2!F | "G"!1!G2!3!BG "D"!3!F!5!A!1!D!3!F | "A"!4!E!1!A,!2!C!4!E "D"!3!D2:|
|: "A"!1!A,B,!3!C!1!D !2!EF!4!G!2!E | "D"!3!(3FE!1!D !2!E!3!F !1!GAB!4!c | "G"!5!d!2!B{d}BA !2!B!3!c!1!de | "D"!3!f2gf "A"!2!e4 |
"D"!1!d2!3!f!1!d !3!c!5!e!1!A!3!c | !4!dcdB !1!A!2!F!1!D!2!F | "G"!1!G2!3!BG "D"!3!F!5!A!1!D!3!F | "A"!4!E!1!A,!2!C!4!E "D"!3!D2:|


